public/assets/logos/software/html.svg

<svg fill="none" height="10" viewBox="0 0 10 10" width="10" xmlns="http://www.w3.org/2000/svg" xmlns:xlink="http://www.w3.org/1999/xlink"><clipPath id="a"><path d="m.634 0h8.732v10h-8.732z"/></clipPath><g clip-path="url(#a)"><path d="m1.36519 8.95263-.731163-8.9357919 8.732003.0179569-.77314 8.917835-3.55991 1.0308z" fill="#e34f26"/><path d="m5.03296 9.12031v-8.252581l3.5959.011971-.64124 7.38354z" fill="#ef652a"/><path d="m7.64004 2.9294.10183-1.0908h-5.53165l.30562 3.34422h3.81764l-.14971 1.42634-1.22262.32956-1.24058-.35956-.06591-.85102h-1.09685l.14985 1.73802 2.25342.62927 2.27138-.62927.30562-3.3921h-4.00933l-.11387-1.14466z" fill="#fff"/></g></svg>

<svg width="10" height="10" viewBox="0 0 10 10" fill="none" xmlns="http://www.w3.org/2000/svg">
<g clip-path="url(#clip0_9_39)">
<path d="M1.36519 8.95263L0.634027 0.0168381L9.36603 0.034795L8.59289 8.95263L5.03298 9.98343L1.36519 8.95263Z" fill="#E34F26"/>
<path d="M5.03296 9.12031V0.867729L8.62886 0.8797L7.98762 8.26324L5.03296 9.12031Z" fill="#EF652A"/>
<path d="M7.64004 2.9294L7.74187 1.8386H2.21022L2.51584 5.18282H6.33348L6.18377 6.60916L4.96115 6.93872L3.72057 6.57916L3.65466 5.72814H2.55781L2.70766 7.46616L4.96108 8.09543L7.23246 7.46616L7.53808 4.07406H3.52875L3.41488 2.9294H7.64004Z" fill="white"/>
</g>
<defs>
<clipPath id="clip0_9_39">
<rect width="8.732" height="10" fill="white" transform="translate(0.634)"/>
</clipPath>
</defs>
</svg>
